assets/icons/hand-swipe-right.svg

<svg width="20" height="20" viewBox="0 0 20 20" fill="none" xmlns="http://www.w3.org/2000/svg">
<g clip-path="url(#clip0_2922_50777)">
<path d="M16.8752 10.9375V13.75C16.8752 15.7492 16.2119 17.0977 16.1838 17.1547C16.1319 17.2584 16.0521 17.3456 15.9535 17.4066C15.8548 17.4676 15.7412 17.5 15.6252 17.5C15.5283 17.5001 15.4327 17.4773 15.3463 17.4336C15.1981 17.3595 15.0853 17.2296 15.0329 17.0724C14.9804 16.9152 14.9926 16.7436 15.0666 16.5953C15.0713 16.5859 15.626 15.4383 15.626 13.75V10.9375C15.626 10.6889 15.5272 10.4504 15.3514 10.2746C15.1756 10.0988 14.9371 10 14.6885 10C14.4398 10 14.2014 10.0988 14.0256 10.2746C13.8497 10.4504 13.751 10.6889 13.751 10.9375V11.25C13.751 11.4158 13.6851 11.5747 13.5679 11.692C13.4507 11.8092 13.2917 11.875 13.126 11.875C12.9602 11.875 12.8012 11.8092 12.684 11.692C12.5668 11.5747 12.501 11.4158 12.501 11.25V9.68751C12.501 9.43887 12.4022 9.20041 12.2264 9.0246C12.0506 8.84878 11.8121 8.75001 11.5635 8.75001C11.3148 8.75001 11.0764 8.84878 10.9006 9.0246C10.7247 9.20041 10.626 9.43887 10.626 9.68751V10.625C10.626 10.7908 10.5601 10.9497 10.4429 11.067C10.3257 11.1842 10.1667 11.25 10.001 11.25C9.83521 11.25 9.67624 11.1842 9.55903 11.067C9.44182 10.9497 9.37597 10.7908 9.37597 10.625V5.31251C9.37597 5.06387 9.2772 4.82541 9.10138 4.6496C8.92556 4.47378 8.68711 4.37501 8.43847 4.37501C8.18983 4.37501 7.95137 4.47378 7.77555 4.6496C7.59974 4.82541 7.50097 5.06387 7.50097 5.31251V13.75C7.50096 13.8858 7.45673 14.0179 7.37498 14.1263C7.29322 14.2347 7.17838 14.3136 7.04783 14.3509C6.91728 14.3882 6.77812 14.382 6.6514 14.3332C6.52468 14.2845 6.4173 14.1957 6.3455 14.0805L4.88612 11.7367L4.87519 11.7188C4.81363 11.6121 4.73166 11.5185 4.63396 11.4435C4.53625 11.3685 4.42473 11.3135 4.30575 11.2815C4.18678 11.2496 4.06268 11.2414 3.94055 11.2575C3.81841 11.2735 3.70063 11.3135 3.59394 11.375C3.48724 11.4366 3.39371 11.5185 3.31869 11.6162C3.24367 11.7139 3.18863 11.8255 3.15671 11.9444C3.12479 12.0634 3.11661 12.1875 3.13265 12.3096C3.14869 12.4318 3.18863 12.5496 3.25019 12.6563L5.53847 16.5625C5.58663 16.6335 5.61965 16.7137 5.63548 16.798C5.6513 16.8824 5.6496 16.9691 5.63046 17.0527C5.61132 17.1363 5.57517 17.2151 5.52425 17.2842C5.47333 17.3533 5.40873 17.4111 5.33449 17.4541C5.26024 17.4971 5.17793 17.5244 5.09269 17.5342C5.00745 17.544 4.9211 17.5362 4.83902 17.5112C4.75694 17.4862 4.68089 17.4445 4.61561 17.3888C4.55032 17.3331 4.49721 17.2646 4.45956 17.1875L2.16894 13.2813C1.87709 12.7797 1.79644 12.1828 1.94471 11.6218C2.09298 11.0608 2.45803 10.5817 2.95956 10.2899C3.46109 9.99801 4.05801 9.91736 4.61901 10.0656C5.18001 10.2139 5.65913 10.579 5.95097 11.0805L6.25019 11.5625V5.31251C6.25019 4.73235 6.48065 4.17595 6.89089 3.76571C7.30113 3.35548 7.85752 3.12501 8.43769 3.12501C9.01785 3.12501 9.57425 3.35548 9.98448 3.76571C10.3947 4.17595 10.6252 4.73235 10.6252 5.31251V7.71095C10.9065 7.57746 11.213 7.50554 11.5243 7.50002C11.8356 7.4945 12.1445 7.55549 12.4303 7.67892C12.7161 7.80235 12.9723 7.98537 13.1818 8.21576C13.3912 8.44614 13.549 8.71858 13.6447 9.01485C13.9779 8.83414 14.3523 8.74309 14.7313 8.75064C15.1102 8.7582 15.4807 8.86409 15.8065 9.05795C16.1322 9.2518 16.4019 9.52696 16.5893 9.85645C16.7766 10.186 16.8752 10.5585 16.8752 10.9375ZM19.8174 3.93282L17.3174 1.43282C17.2001 1.31565 17.0411 1.24987 16.8753 1.24994C16.7095 1.25001 16.5506 1.31594 16.4334 1.43321C16.3162 1.55049 16.2504 1.70951 16.2505 1.87529C16.2506 2.04107 16.3165 2.20003 16.4338 2.3172L17.8658 3.75001H13.7502C13.5844 3.75001 13.4255 3.81586 13.3082 3.93307C13.191 4.05028 13.1252 4.20925 13.1252 4.37501C13.1252 4.54077 13.191 4.69974 13.3082 4.81695C13.4255 4.93416 13.5844 5.00001 13.7502 5.00001H17.8666L16.433 6.43282C16.3749 6.49084 16.3289 6.55973 16.2974 6.63555C16.266 6.71137 16.2498 6.79265 16.2497 6.87473C16.2497 6.95682 16.2658 7.03811 16.2972 7.11396C16.3286 7.18981 16.3746 7.25874 16.4326 7.31681C16.4906 7.37488 16.5595 7.42095 16.6353 7.4524C16.7112 7.48384 16.7924 7.50005 16.8745 7.50008C16.9566 7.50012 17.0379 7.48399 17.1137 7.45261C17.1896 7.42123 17.2585 7.37522 17.3166 7.3172L19.8166 4.8172C19.8748 4.7592 19.9209 4.69031 19.9524 4.61447C19.984 4.53862 20.0002 4.45731 20.0003 4.37517C20.0004 4.29304 19.9842 4.21169 19.9529 4.13579C19.9215 4.05989 19.8754 3.99092 19.8174 3.93282Z" fill="#94969C"/>
</g>
<defs>
<clipPath id="clip0_2922_50777">
<rect width="20" height="20" fill="white"/>
</clipPath>
</defs>
</svg>

<svg xmlns="http://www.w3.org/2000/svg" width="20" height="20" fill="none" viewBox="0 0 20 20"><g clip-path="url(#a)"><path fill="#94969c" d="M16.875 10.938v2.812c0 2-.663 3.348-.691 3.405a.626.626 0 0 1-1.117-.56c.004-.01.559-1.157.559-2.845v-2.812a.938.938 0 0 0-1.875 0v.312a.625.625 0 0 1-1.25 0V9.688a.938.938 0 0 0-1.875 0v.937a.625.625 0 0 1-1.25 0V5.313a.937.937 0 1 0-1.875 0v8.437a.625.625 0 0 1-1.155.33l-1.46-2.343-.01-.018a.938.938 0 1 0-1.626.937l2.288 3.906a.625.625 0 1 1-1.078.625l-2.291-3.906a2.188 2.188 0 0 1 3.782-2.2l.3.482v-6.25a2.187 2.187 0 1 1 4.374 0V7.71a2.188 2.188 0 0 1 3.02 1.304 2.188 2.188 0 0 1 3.23 1.922m2.942-7.005-2.5-2.5a.625.625 0 0 0-.883.884l1.432 1.433H13.75a.625.625 0 0 0 0 1.25h4.117l-1.434 1.433a.626.626 0 0 0 .884.884l2.5-2.5a.624.624 0 0 0 0-.884"/></g><defs><clipPath id="a"><path fill="#fff" d="M0 0h20v20H0z"/></clipPath></defs></svg>
